X: 29420
T: Niel Gow's Recovery
R: strathspey
M: 4/4
K: Gminor
E|D/E/F F>d d/c/B/A/ B>F|G>B G/F/E/D/ E<CC>E|D>FF>d d/c/B/A/ B>F|G>BF>E D<B,B,:|
e|d<fB>f d<BB>b|g>ef>d e<cc>e|d<fB>f d<fB>b|g>ef>e d<BB>e|
d<fB>f d<BB>b|g>ef>d e<cc>e|d<fc<d B<ed>c|B>G F/G/F/E/ D<B,B,||

